X: 3231
T: The SHAMROCK
%R: slip-jig
B: James Kerr "Merry Melodies" v.3 p.26 #231
Z: 2016 John Chambers <jc:trillian.mit.edu>
M: 9/8
L: 1/8
K: A
|:\
vA2vA cBA cde | uA2uA cBA GFE |\
A2A cBA cde | fga e2d cBA ::\
cde ece e3 | cde ecA GFE |\
cde ece e3 | fga e2d cBA :|

%%sep 1 1 500
%%sep 1 1 500

